svg/fluentui-system-icons/ic_fluent_weather_cloudy_20_regular.svg

<svg width="20" height="20" viewBox="0 0 20 20" fill="none" xmlns="http://www.w3.org/2000/svg">
<path d="M11 7C13.4646 7 14.8627 8.5736 15.066 10.474L15.1282 10.474C16.7143 10.474 18 11.711 18 13.237C18 14.763 16.7143 16 15.1282 16H6.87179C5.28575 16 4 14.763 4 13.237C4 11.711 5.28575 10.474 6.87181 10.474L6.93399 10.474C7.13851 8.56111 8.53544 7 11 7ZM11 8C9.35056 8 7.9129 9.2703 7.9129 11.0249C7.9129 11.303 7.65891 11.5211 7.36808 11.5211L6.81818 11.5211C5.81403 11.5211 5 12.2999 5 13.2606C5 14.2212 5.81403 15 6.81818 15H15.1818C16.186 15 17 14.2212 17 13.2606C17 12.2999 16.186 11.5211 15.1818 11.5211L14.6319 11.5211C14.3411 11.5211 14.0871 11.303 14.0871 11.0249C14.0871 9.24779 12.6494 8 11 8ZM8.3919 4C9.84845 4 11.1178 4.82808 11.7449 6.0449C11.5044 6.01509 11.2559 6 11 6C10.8166 6 10.637 6.00769 10.4614 6.02279C9.97196 5.39649 9.21361 5 8.375 5C7.07938 5 5.97533 5.94639 5.75418 7.225L5.71784 7.43505C5.63492 7.91447 5.21898 8.26463 4.73244 8.26461L4.47364 8.2646C3.65976 8.2646 3 8.93291 3 9.7573C3 10.3268 3.31484 10.8218 3.77783 11.0735C3.56408 11.3452 3.38766 11.6488 3.25733 11.9754C2.50324 11.5151 2 10.6845 2 9.73632C2 8.34376 3.08548 7.20472 4.45649 7.11916L4.67912 7.11401C4.99007 5.33919 6.53961 4 8.3919 4Z" fill="#212121"/>
</svg>

<svg xmlns="http://www.w3.org/2000/svg" width="20" height="20"><path d="M11 7c2.465 0 3.863 1.574 4.066 3.474h.062c1.586 0 2.872 1.237 2.872 2.763C18 14.763 16.714 16 15.128 16H6.872C5.286 16 4 14.763 4 13.237c0-1.526 1.286-2.763 2.872-2.763h.062C7.139 8.561 8.535 7 11 7Zm0 1c-1.65 0-3.087 1.27-3.087 3.025 0 .278-.254.496-.545.496h-.55C5.814 11.521 5 12.3 5 13.261 5 14.22 5.814 15 6.818 15h8.364C16.186 15 17 14.221 17 13.26c0-.96-.814-1.739-1.818-1.739h-.55c-.29 0-.545-.218-.545-.496C14.087 9.248 12.65 8 11 8ZM8.392 4c1.456 0 2.726.828 3.353 2.045a6.055 6.055 0 0 0-1.284-.022A2.647 2.647 0 0 0 8.375 5a2.67 2.67 0 0 0-2.62 2.225l-.037.21a1 1 0 0 1-.986.83h-.258C3.66 8.265 3 8.933 3 9.757c0 .57.315 1.065.778 1.316-.214.272-.39.576-.52.902a2.622 2.622 0 0 1 1.2-4.856l.221-.005A3.77 3.77 0 0 1 8.392 4Z"/></svg>
